public/worker/images/svg/category-fill.svg

<svg width="24" height="24" viewBox="0 0 24 24" fill="none" xmlns="http://www.w3.org/2000/svg">
<path d="M17 10H19C21 10 22 9 22 7V5C22 3 21 2 19 2H17C15 2 14 3 14 5V7C14 9 15 10 17 10Z" fill="#199675"/>
<path d="M5 22H7C9 22 10 21 10 19V17C10 15 9 14 7 14H5C3 14 2 15 2 17V19C2 21 3 22 5 22Z" fill="#199675"/>
<path d="M6 10C8.20914 10 10 8.20914 10 6C10 3.79086 8.20914 2 6 2C3.79086 2 2 3.79086 2 6C2 8.20914 3.79086 10 6 10Z" fill="#199675"/>
<path d="M18 22C20.2091 22 22 20.2091 22 18C22 15.7909 20.2091 14 18 14C15.7909 14 14 15.7909 14 18C14 20.2091 15.7909 22 18 22Z" fill="#199675"/>
</svg>

<?xml version="1.0" encoding="UTF-8"?>
<svg id="Livello_1" xmlns="http://www.w3.org/2000/svg" version="1.1" viewBox="0 0 24 24">
  <!-- Generator: Adobe Illustrator 29.8.1, SVG Export Plug-In . SVG Version: 2.1.1 Build 2)  -->
  <path d="M17,10h2c2,0,3-1,3-3v-2c0-2-1-3-3-3h-2c-2,0-3,1-3,3v2c0,2,1,3,3,3Z"/>
  <path d="M5,22h2c2,0,3-1,3-3v-2c0-2-1-3-3-3h-2c-2,0-3,1-3,3v2c0,2,1,3,3,3Z"/>
  <path d="M6,10c2.21,0,4-1.79,4-4S8.21,2,6,2,2,3.79,2,6s1.79,4,4,4Z"/>
  <path d="M18,22c2.21,0,4-1.79,4-4s-1.79-4-4-4-4,1.79-4,4,1.79,4,4,4Z"/>
</svg>
